src/icons/icons_set_02/029-croix-fermer.svg

<svg height="50" viewBox="0 0 50 50" width="50" xmlns="http://www.w3.org/2000/svg"><path d="m25.25 21.5h20.25v4h-20.25v20h-4v-20h-20.75v-4h20.75v-21h4z" transform="matrix(.70710678 .70710678 -.70710678 .70710678 25 -7.526912)"/></svg>

<?xml version="1.0" encoding="UTF-8"?>
<svg width="50px" height="50px" viewBox="0 0 50 50" version="1.1" xmlns="http://www.w3.org/2000/svg" xmlns:xlink="http://www.w3.org/1999/xlink">
    <!-- Generator: Sketch 52.4 (67378) - http://www.bohemiancoding.com/sketch -->
    <title>029-croix-fermer</title>
    <desc>Created with Sketch.</desc>
    <g id="029-croix-fermer" stroke="none" stroke-width="1" fill="none" fill-rule="evenodd">
        <g id="Group-2" transform="translate(25.000000, 25.000000) rotate(-315.000000) translate(-25.000000, -25.000000) translate(2.000000, 2.000000)" fill="#000000" fill-rule="nonzero">
            <path d="M25.25,21.5 L45.5,21.5 L45.5,25.5 L25.25,25.5 L25.25,45.5 L21.25,45.5 L21.25,25.5 L0.5,25.5 L0.5,21.5 L21.25,21.5 L21.25,0.5 L25.25,0.5 L25.25,21.5 Z" id="Combined-Shape"></path>
        </g>
    </g>
</svg>
